X: 43607
T: Your Moment To Shine
R: slip jig
M: 9/8
K: Amajor
M:7/8
F2 Bc d2F|Bc d2 edc|B2 A2 GAe|ed dc cGA|
d2 ~F2 EFF|EF AB edc|B4- B3-|B2- BA Bce:|
f2 dA Ade|ag eA Bcd|e/e/e dc Fdc|AB BA Bce|
f2 dA Ade|ag eA Bcd|e/e/e dc Fdc|1 A2 AA Bce:|2 A2 AA BcA||

